Rowaita/16x16/actions/format-text-capitalize.svg

<?xml version="1.0" encoding="UTF-8" standalone="no"?>
<svg
   width="16"
   height="16"
   viewBox="0 0 16 16"
   version="1.1"
   id="svg7"
   sodipodi:docname="format-text-capitalize.svg"
   xml:space="preserve"
   inkscape:version="1.2.1 (9c6d41e410, 2022-07-14)"
   xmlns:inkscape="http://www.inkscape.org/namespaces/inkscape"
   xmlns:sodipodi="http://sodipodi.sourceforge.net/DTD/sodipodi-0.dtd"
   xmlns="http://www.w3.org/2000/svg"
   xmlns:svg="http://www.w3.org/2000/svg"><sodipodi:namedview
     id="namedview9"
     pagecolor="#ffffff"
     bordercolor="#000000"
     borderopacity="0.25"
     inkscape:showpageshadow="2"
     inkscape:pageopacity="0.0"
     inkscape:pagecheckerboard="0"
     inkscape:deskcolor="#d1d1d1"
     showgrid="false"
     inkscape:zoom="16.046875"
     inkscape:cx="20.315482"
     inkscape:cy="9.6280428"
     inkscape:current-layer="svg7" /><defs
     id="defs3"><style
       id="current-color-scheme"
       type="text/css">
   .ColorScheme-Text { color:#444444; } .ColorScheme-Highlight { color:#4285f4; }
  </style></defs><g
     id="g297"><path
       id="path299"
       style="fill:#444444;fill-opacity:1"
       d="m 9,5 v 9 h 1 V 13.230469 A 3,3 0 0 0 12,14 3,3 0 0 0 15,11 3,3 0 0 0 12,8 3,3 0 0 0 10,8.7675781 V 5 Z m 3,4 a 2,2 0 0 1 2,2 2,2 0 0 1 -2,2 2,2 0 0 1 -2,-2 2,2 0 0 1 2,-2 z" /><path
       id="path301"
       style="fill:#444444;fill-opacity:1"
       d="M 3.8867188,6 1,14 H 2.1660156 L 3.1601562,11.714844 H 5.9394531 L 6.8339844,14 H 8 L 5.3554688,6 Z m 0.734375,1.2402344 1.09375,3.3320316 H 3.4121094 Z" /><path
       d="M 2,4.8333418 V 4.0000064 H 2.0065 C 2.00325,3.7786514 2.091136,3.5670629 2.2441315,3.4108124 L 3.9108023,1.7441411 c 0.325522,-0.3255215 0.852867,-0.3255215 1.178388,0 l 1.666672,1.6666713 c 0.152997,0.1562505 0.240888,0.367839 0.240888,0.589194 h 0.0032 v 0.8333354 z m 0,0"
       id="path4"
       style="fill:#444444;fill-opacity:1;stroke-width:0.833335" /></g></svg>

<svg xmlns="http://www.w3.org/2000/svg" width="16" height="16" viewBox="0 0 16 16">
 <defs>
  <style id="current-color-scheme" type="text/css">
   .ColorScheme-Text { color:#444444; } .ColorScheme-Highlight { color:#4285f4; }
  </style>
 </defs>
 <path style="fill:currentColor" class="ColorScheme-Text" d="M 4.5 2 L 2 5 L 7 5 L 4.5 2 z M 9 5 L 9 14 L 10 14 L 10 13.230469 A 3 3 0 0 0 12 14 A 3 3 0 0 0 15 11 A 3 3 0 0 0 12 8 A 3 3 0 0 0 10 8.7675781 L 10 5 L 9 5 z M 3.8867188 6 L 1 14 L 2.1660156 14 L 3.1601562 11.714844 L 5.9394531 11.714844 L 6.8339844 14 L 8 14 L 5.3554688 6 L 3.8867188 6 z M 4.6210938 7.2402344 L 5.7148438 10.572266 L 3.4121094 10.572266 L 4.6210938 7.2402344 z M 12 9 A 2 2 0 0 1 14 11 A 2 2 0 0 1 12 13 A 2 2 0 0 1 10 11 A 2 2 0 0 1 12 9 z"/>
</svg>
